X: 17611
T: Hogties
R: reel
M: 4/4
K: Edorian
d|BABd E2dc|BABc d2cd|BABd E2ed|BABd FE2d|
BABd E2dc|BABc d2cd|e2dc ABdA|BdAF E4:|
|:eE (3EEE e2dc|BABc d2cd|BE (3EEE B2dc|BABd FE3|
eE (3EEE e2dc|BABc d2cd|e2dc ABdA|BdAF E4:|

